_includes/icons/ios-youtube.svg

<svg fill="#666" height="50" viewBox="0 0 50 50" width="50" xmlns="http://www.w3.org/2000/svg"><path d="m13 5 3 9v6h2v-6l3-9h-2l-2 6-2-6zm11 4c-1.066406 0-1.589844.167969-2.242187.703125-.625.527344-.796875.933594-.757813 2.296875v5c0 .996094.164063 1.652344.765625 2.234375.625.582031 1.214844.765625 2.234375.765625 1.066406 0 1.648438-.183594 2.25-.765625.625-.558594.75-1.238281.75-2.234375v-5c0-.882812-.15625-1.71875-.761719-2.277344-.625-.574218-1.269531-.722656-2.238281-.722656zm5 0v9c0 .972656.980469 2 2 2s1.558594-.511719 2-1v1h2v-11h-2v8c-.011719.683594-.816406 1-1 1-.207031 0-1-.042969-1-1v-8zm-5 2c.300781 0 1-.003906 1 1v5c0 .96875-.675781 1-1 1-.300781 0-1-.011719-1-1v-5c0-.816406.433594-1 1-1zm1.457031 10.921875c-5.042968-.011719-10.082031 0-15.125.078125-.679687.019531-1.359375.117188-2.007812.328125-.523438.175781-1.023438.417969-1.476563.734375-.535156.375-.996093.847656-1.355468 1.390625-.253907.378906-.457032.792969-.609375 1.222656-.25.691407-.363282 1.421875-.382813 2.152344-.050781 3.28125-.050781 6.5625 0 9.84375.019531.625.101563 1.242188.265625 1.847656.316406 1.140625.921875 2.207032 1.804688 3.007813.253906.230469.527343.4375.820312.617187.359375.222657.746094.40625 1.148438.542969.578125.195313 1.183593.292969 1.792968.3125 10.109375.1875 20.226563.15625 30.335938 0 .679687-.019531 1.359375-.117187 2.007812-.328125.523438-.175781 1.023438-.417969 1.476563-.734375.535156-.375.996094-.847656 1.359375-1.390625.25-.378906.453125-.792969.609375-1.222656.246094-.691406.359375-1.421875.378906-2.152344.050781-3.417969.015625-6.839844 0-10.253906-.011719-.738281-.117187-1.476563-.359375-2.171875-.144531-.433594-.34375-.851563-.59375-1.234375-.351562-.546875-.808594-1.027344-1.335937-1.40625-.46875-.339844-.988282-.597656-1.535157-.777344-.675781-.21875-1.382812-.316406-2.09375-.328125-5.039062-.023437-10.082031-.066406-15.125-.078125zm7.636719 2.015625c2.511719.003906 5.023438.023438 7.53125.0625.398438.011719.796875.058594 1.183594.15625.621094.164063 1.207031.472656 1.65625.933594.152344.15625.285156.324219.40625.507812.167969.261719.300781.546875.394531.84375.15625.460938.21875.945313.234375 1.433594.050781 3.417969.050781 6.835938 0 10.25-.015625.488281-.078125.972656-.234375 1.433594-.09375.296875-.226562.582031-.394531.84375-.121094.183594-.253906.351562-.40625.507812-.449219.460938-1.035156.769532-1.65625.933594-.386719.097656-.785156.144531-1.183594.15625-10.058594.15625-20.121094.0625-30.183594 0-.429687-.007812-.851562-.070312-1.261718-.207031-.257813-.089844-.507813-.207031-.738282-.351563-.1875-.113281-.367187-.246093-.527343-.394531-.617188-.5625-1.023438-1.316406-1.234375-2.113281-.113282-.425781-.164063-.867188-.179688-1.308594-.050781-3.226562-.015625-6.457031 0-9.6875.007813-.492187.070313-.980469.21875-1.449219.09375-.300781.222656-.585937.390625-.851562.121094-.195313.265625-.382813.425781-.546875.464844-.476563 1.066407-.785156 1.707032-.945313.414062-.101562.839843-.140625 1.261718-.144531 7.53125 0 15.0625-.085937 22.589844-.0625zm-22.09375 2.0625v2h2v12h2v-12h2v-2zm15 0v14h2v-1c.386719.449219.949219 1.011719 2 1 .621094-.007812 1.101563-.507812 1.421875-.902344.328125-.394531.578125-.855468.578125-1.597656v-6c0-.863281-.273437-1.449219-.621094-1.890625-.347656-.4375-.855468-.671875-1.503906-.671875-.328125 0-.652344.09375-.972656.257813-.328125.160156-.671875.445312-.902344.804687v-4zm-8 3v9c0 .625.269531.933594.5 1.234375.257813.328125.808594.765625 1.292969.765625.390625 0 .8125.015625 1.226562-.21875.417969-.207031.609375-.34375.980469-.78125v1h2v-11h-2v8c-.179687.234375-.1875.992188-1 1-.730469.007813-1-.769531-1-1v-8zm18.199219 0c-.949219 0-1.828125.230469-2.296875.710938-.582031.597656-.898438 1.269531-.898438 2.175781v4.707031c0 1.019531.277344 1.8125.808594 2.390625s1.273438.859375 2.222656.859375c1.039063 0 1.832032-.257812 2.339844-.816406.539063-.53125.625-1.34375.625-2.433594v-.59375h-2v.5c0 .601563-.058594 1.066406-.199219 1.230469-.136718.183594-.394531.265625-.800781.269531-.367187.003906-.644531-.097656-.78125-.328125-.144531-.210937-.21875-.566406-.21875-1.125v-1.546875h4v-3.113281c0-1-.164062-1.621094-.679687-2.152344-.503907-.53125-1.171875-.734375-2.121094-.734375zm-7.199219 1.5c.550781 0 1 .5 1 1.5v5.023438c0 .550781-.449219.976562-1 .976562s-.992187-.210937-1-.5v-6c.007813-.503906.449219-1 1-1zm7 .5c.550781 0 1 .386719 1 1v1h-2v-1c.007813-.535156.449219-1 1-1z" fill-rule="evenodd"/></svg>

<svg xmlns="http://www.w3.org/2000/svg" viewBox="0 0 50 50" width="50" height="50" fill="#666"><path d="M 13 5 L 16 14 L 16 20 L 18 20 L 18 14 L 21 5 L 19 5 L 17 11 L 15 5 Z M 24 9 C 22.933594 9 22.410156 9.167969 21.757813 9.703125 C 21.132813 10.230469 20.960938 10.636719 21 12 L 21 17 C 21 17.996094 21.164063 18.652344 21.765625 19.234375 C 22.390625 19.816406 22.980469 20 24 20 C 25.066406 20 25.648438 19.816406 26.25 19.234375 C 26.875 18.675781 27 17.996094 27 17 L 27 12 C 27 11.117188 26.84375 10.28125 26.238281 9.722656 C 25.613281 9.148438 24.96875 9 24 9 Z M 29 9 L 29 18 C 29 18.972656 29.980469 20 31 20 C 32.019531 20 32.558594 19.488281 33 19 L 33 20 L 35 20 L 35 9 L 33 9 L 33 17 C 32.988281 17.683594 32.183594 18 32 18 C 31.792969 18 31 17.957031 31 17 L 31 9 Z M 24 11 C 24.300781 11 25 10.996094 25 12 L 25 17 C 25 17.96875 24.324219 18 24 18 C 23.699219 18 23 17.988281 23 17 L 23 12 C 23 11.183594 23.433594 11 24 11 Z M 25.457031 21.921875 C 20.414063 21.910156 15.375 21.921875 10.332031 22 C 9.652344 22.019531 8.972656 22.117188 8.324219 22.328125 C 7.800781 22.503906 7.300781 22.746094 6.847656 23.0625 C 6.3125 23.4375 5.851563 23.910156 5.492188 24.453125 C 5.238281 24.832031 5.035156 25.246094 4.882813 25.675781 C 4.632813 26.367188 4.519531 27.097656 4.5 27.828125 C 4.449219 31.109375 4.449219 34.390625 4.5 37.671875 C 4.519531 38.296875 4.601563 38.914063 4.765625 39.519531 C 5.082031 40.660156 5.6875 41.726563 6.570313 42.527344 C 6.824219 42.757813 7.097656 42.964844 7.390625 43.144531 C 7.75 43.367188 8.136719 43.550781 8.539063 43.6875 C 9.117188 43.882813 9.722656 43.980469 10.332031 44 C 20.441406 44.1875 30.558594 44.15625 40.667969 44 C 41.347656 43.980469 42.027344 43.882813 42.675781 43.671875 C 43.199219 43.496094 43.699219 43.253906 44.152344 42.9375 C 44.6875 42.5625 45.148438 42.089844 45.511719 41.546875 C 45.761719 41.167969 45.964844 40.753906 46.121094 40.324219 C 46.367188 39.632813 46.480469 38.902344 46.5 38.171875 C 46.550781 34.753906 46.515625 31.332031 46.5 27.917969 C 46.488281 27.179688 46.382813 26.441406 46.140625 25.746094 C 45.996094 25.3125 45.796875 24.894531 45.546875 24.511719 C 45.195313 23.964844 44.738281 23.484375 44.210938 23.105469 C 43.742188 22.765625 43.222656 22.507813 42.675781 22.328125 C 42 22.109375 41.292969 22.011719 40.582031 22 C 35.542969 21.976563 30.5 21.933594 25.457031 21.921875 Z M 33.09375 23.9375 C 35.605469 23.941406 38.117188 23.960938 40.625 24 C 41.023438 24.011719 41.421875 24.058594 41.808594 24.15625 C 42.429688 24.320313 43.015625 24.628906 43.464844 25.089844 C 43.617188 25.246094 43.75 25.414063 43.871094 25.597656 C 44.039063 25.859375 44.171875 26.144531 44.265625 26.441406 C 44.421875 26.902344 44.484375 27.386719 44.5 27.875 C 44.550781 31.292969 44.550781 34.710938 44.5 38.125 C 44.484375 38.613281 44.421875 39.097656 44.265625 39.558594 C 44.171875 39.855469 44.039063 40.140625 43.871094 40.402344 C 43.75 40.585938 43.617188 40.753906 43.464844 40.910156 C 43.015625 41.371094 42.429688 41.679688 41.808594 41.84375 C 41.421875 41.941406 41.023438 41.988281 40.625 42 C 30.566406 42.15625 20.503906 42.0625 10.441406 42 C 10.011719 41.992188 9.589844 41.929688 9.179688 41.792969 C 8.921875 41.703125 8.671875 41.585938 8.441406 41.441406 C 8.253906 41.328125 8.074219 41.195313 7.914063 41.046875 C 7.296875 40.484375 6.890625 39.730469 6.679688 38.933594 C 6.566406 38.507813 6.515625 38.066406 6.5 37.625 C 6.449219 34.398438 6.484375 31.167969 6.5 27.9375 C 6.507813 27.445313 6.570313 26.957031 6.71875 26.488281 C 6.8125 26.1875 6.941406 25.902344 7.109375 25.636719 C 7.230469 25.441406 7.375 25.253906 7.535156 25.089844 C 8 24.613281 8.601563 24.304688 9.242188 24.144531 C 9.65625 24.042969 10.082031 24.003906 10.503906 24 C 18.035156 24 25.566406 23.914063 33.09375 23.9375 Z M 11 26 L 11 28 L 13 28 L 13 40 L 15 40 L 15 28 L 17 28 L 17 26 Z M 26 26 L 26 40 L 28 40 L 28 39 C 28.386719 39.449219 28.949219 40.011719 30 40 C 30.621094 39.992188 31.101563 39.492188 31.421875 39.097656 C 31.75 38.703125 32 38.242188 32 37.5 L 32 31.5 C 32 30.636719 31.726563 30.050781 31.378906 29.609375 C 31.03125 29.171875 30.523438 28.9375 29.875 28.9375 C 29.546875 28.9375 29.222656 29.03125 28.902344 29.195313 C 28.574219 29.355469 28.230469 29.640625 28 30 L 28 26 Z M 18 29 L 18 38 C 18 38.625 18.269531 38.933594 18.5 39.234375 C 18.757813 39.5625 19.308594 40 19.792969 40 C 20.183594 40 20.605469 40.015625 21.019531 39.78125 C 21.4375 39.574219 21.628906 39.4375 22 39 L 22 40 L 24 40 L 24 29 L 22 29 L 22 37 C 21.820313 37.234375 21.8125 37.992188 21 38 C 20.269531 38.007813 20 37.230469 20 37 L 20 29 Z M 36.199219 29 C 35.25 29 34.371094 29.230469 33.902344 29.710938 C 33.320313 30.308594 33.003906 30.980469 33.003906 31.886719 L 33.003906 36.59375 C 33.003906 37.613281 33.28125 38.40625 33.8125 38.984375 C 34.34375 39.5625 35.085938 39.84375 36.035156 39.84375 C 37.074219 39.84375 37.867188 39.585938 38.375 39.027344 C 38.914063 38.496094 39 37.683594 39 36.59375 L 39 36 L 37 36 L 37 36.5 C 37 37.101563 36.941406 37.566406 36.800781 37.730469 C 36.664063 37.914063 36.40625 37.996094 36 38 C 35.632813 38.003906 35.355469 37.902344 35.21875 37.671875 C 35.074219 37.460938 35 37.105469 35 36.546875 L 35 35 L 39 35 L 39 31.886719 C 39 30.886719 38.835938 30.265625 38.320313 29.734375 C 37.816406 29.203125 37.148438 29 36.199219 29 Z M 29 30.5 C 29.550781 30.5 30 31 30 32 L 30 37.023438 C 30 37.574219 29.550781 38 29 38 C 28.449219 38 28.007813 37.789063 28 37.5 L 28 31.5 C 28.007813 30.996094 28.449219 30.5 29 30.5 Z M 36 31 C 36.550781 31 37 31.386719 37 32 L 37 33 L 35 33 L 35 32 C 35.007813 31.464844 35.449219 31 36 31 Z" fill-rule="evenodd"/></svg>
